src/icons/person.svg

<svg xmlns="http://www.w3.org/2000/svg" width="512" height="512" viewBox="0 0 512 512">
    <path d="M416 409.5s0-22-1.8-33.5c-1.5-9.1-14.1-21.1-67.6-40.8-52.7-19.3-49.4-9.9-49.4-45.5 0-23.1 11.8-9.7 19.2-53.5 2.9-17.2 5.2-5.8 11.6-33.4 3.3-14.5-2.2-15.6-1.6-22.5.7-6.9 1.3-13.1 2.6-27.2 1.5-17.5-14.8-63.6-73-63.6s-74.5 46.1-72.9 63.7c1.2 14.1 1.9 20.3 2.6 27.2.7 6.9-4.9 8-1.6 22.5 6.3 27.6 8.7 16.1 11.6 33.4 7.5 43.8 19.2 30.4 19.2 53.5 0 35.7 3.2 26.3-49.4 45.5-53.5 19.6-66.2 31.7-67.6 40.8-1.9 11.4-1.9 33.4-1.9 33.4h320z"/>
</svg>

<?xml version="1.0" encoding="UTF-8"?>
<svg width="512px" height="512px" viewBox="0 0 512 512" version="1.1" xmlns="http://www.w3.org/2000/svg" xmlns:xlink="http://www.w3.org/1999/xlink">
    <!-- Generator: Sketch 62 (91390) - https://sketch.com -->
    <title>person</title>
    <desc>Created with Sketch.</desc>
    <g id="person" stroke="none" stroke-width="1" fill="none" fill-rule="evenodd">
        <path d="M416,409.5 C416,409.5 416,387.5 414.2,376 C412.7,366.9 400.1,354.9 346.6,335.2 C293.9,315.9 297.2,325.3 297.2,289.7 C297.2,266.6 309,280 316.4,236.2 C319.3,219 321.6,230.4 328,202.8 C331.3,188.3 325.8,187.2 326.4,180.3 C327.1,173.4 327.7,167.2 329,153.1 C330.5,135.6 314.2,89.5 256,89.5 C197.8,89.5 181.5,135.6 183.1,153.2 C184.3,167.3 185,173.5 185.7,180.4 C186.4,187.3 180.8,188.4 184.1,202.9 C190.4,230.5 192.8,219 195.7,236.3 C203.2,280.1 214.9,266.7 214.9,289.8 C214.9,325.5 218.1,316.1 165.5,335.3 C112,354.9 99.3,367 97.9,376.1 C96,387.5 96,409.5 96,409.5 L416,409.5 Z" id="Path" fill="#000000" fill-rule="nonzero"></path>
    </g>
</svg>
